X:1
T:Title
%%score ( 1 2 3 ) { ( 4 7 ) | ( 5 6 ) }
L:1/8
Q:1/4=110
M:4/4
K:Ab
V:1 treble nm="Grand Piano, Soprano"
V:2 treble 
V:3 treble 
V:4 bass nm="Choir Pad, Penmaenmawr, CMD"
V:7 bass 
V:5 bass 
V:6 bass 
V:1
 C2 [FA]2- [FA][FA] [=EG]2 | [=EG]2 F2 [CF]2 C2- | C[B,C] [A,D]2 [A,D]2 [A,E]2 | [A,D]2 C6 | %4
w: By~Sarah~Geraldine~Stock,~ca.~1902 * * * *||||
 C2 [CA]2- [CA][FA] [FG]2 | [=EG]2 F2 [EG]2 [FA]2 | [GB]2 [Ac]2- [Ac][Ac] [A=d]2 | [A=d]2 [Ge]6 | %8
w: ||||
 z2 .e4 z2 | [Ac]2 [Gc]2- [Gc][GB] A2- | A2 [GB]2 [GB][GB] [Be]2 | [GB]2 [Ac]6 | %12
w: ||||
 [Ec]2 [=Ec]2- [Ec][EG] [CG]2 | [=EB]2 [EB]2- [EB][FA] [CA]2 | [_CF]2 [=CE]2 [Ae]2 [Gc]2- | %15
w: |||
 [Gc][GB] A6- | A2 z2 z4 |] %17
w: ||
V:2
 x8 | x8 | x8 | x8 | x8 | x8 | x8 | x8 | [Ge]2 A2 z d [Ac]2 | x8 | x8 | x8 | x8 | x8 | x8 | x8 | %16
 x8 |] %17
V:3
 x8 | x8 | x8 | x8 | x8 | x8 | x8 | x8 | z4 A2 z2 | x8 | x8 | x8 | x8 | x8 | x8 | x8 | x8 |] %17
V:4
 C,2 C2- CC B,2 | B,2 A,2 A,2 G,2- | G,G, A,2 A,2 A,2 | A,2 G,6 | B,2 A,2- A,C B,2 | %5
 B,2 A,2[K:treble] C2 C2 | E2 E2- EE F2 | A,2 B,6 | D2 .C4 E2 | E2 .E4 C2- | C2 E2 EE E2 | E2 E6 | %12
 C2 C2- CC C2 | C2 D2- DC[K:bass] A,2 | A,2 A,2 C2 E2 | z[K:treble] D C6- | C2 z2 z4 |] %17
V:5
 z2 F,2- F,F, C,2 | C,2 F,2 F,2 =E,2- | E,=E, F,2 F,2 F,2 | F,2 =E,6 | =E,2 F,2- F,F, C,2 | %5
 C,2 D,2 C,2 F,2 | G,2 A,2- A,A, F,2 | F,2 E,6 | E,2 A,2 z[K:treble] F A,2 | A,2 E,2 z D F,2- | %10
 F,2 E,2 E,E, G,2 | E,2 A,6 | A,2 C,2- C,C, =E,2 | C,2 F,2- F,F, F,2 | =D,2 E,2 E,2 E,2 | %15
 z2 A,,6- | A,,2 z2 z4 |] %17
V:6
 x8 | x8 | x8 | x8 | x8 | x8 | x8 | x8 | z4 A,2[K:treble] z2 | z4 E,2 z2 | x8 | x8 | x8 | x8 | x8 | %15
 x8 | x8 |] %17
V:7
 x8 | x8 | x8 | x8 | x8 | x4[K:treble] x4 | x8 | x8 | x8 | x8 | x8 | x8 | x8 | x6[K:bass] x2 | x8 | %15
 E,2[K:treble] z2 z4 | x8 |] %17

